media/costumes/glasses.svg

<svg width="56" height="21" viewBox="-1 -1 56 21" xmlns="http://www.w3.org/2000/svg"><defs><linearGradient id="a" y2="1"><stop offset="0" stop-color="#FFF" stop-opacity="0"/><stop offset="1" stop-color="#FFF"/></linearGradient><linearGradient id="b" y2="1"><stop offset="0" stop-color="#FFF" stop-opacity="0"/><stop offset="1" stop-color="#FFF"/></linearGradient></defs><g stroke="#000" stroke-width="2" stroke-linecap="round"><path fill="url(#a)" d="M374.9 54.7c.836.02.944.057 1.15.5.64 1.408 1.017 3.006.95 4.55-.062 1.644-.244 3.548-1.375 4.742-1.025 1.072-2.598 1.289-3.875 1.258-1.817-.053-3.936-.127-5-1.5-1.664-2.149-1.497-5.21-2-7.8-.164-.724-.666-1.274.15-1.4 3.294-.531 6.648-.43 10-.35z" transform="matrix(-1.1596 0 0 1.1596 473.025 -57.882)"/><path fill="url(#b)" d="M364.25 54.8c6.9-.702 11.255-.663 14.55-.5.794.054.492.209.6.65.347 1.677.674 3.488.35 5.15-.306 1.572-.929 3.501-2.25 4.25-2.027 1.147-4.672.701-7 .5-1.296-.105-2.876-.308-3.75-1.3-1.092-1.257-1.107-3.027-1.6-4.55-.246-.838-.402-1.629-.55-2.45-.104-.585-1.194-1.548-.35-1.75z" transform="matrix(-1.1596 0 0 1.1596 452.79 -57.93)"/><path fill="none" d="M36.144 7.055l-5.218-.29m-19.134-.869L1.182 2.069" stroke-width="2.319"/></g></svg>

<svg version="1.1" width="56" height="21" viewBox="-1 -1 56 21" xmlns="http://www.w3.org/2000/svg" xmlns:xlink="http://www.w3.org/1999/xlink">
  <defs>
    <linearGradient id="grad_1" y2="1">
      <stop offset="0" stop-color="#FFFFFF" stop-opacity="0"/>
      <stop offset="1" stop-color="#FFFFFF" stop-opacity="1"/>
    </linearGradient>
    <linearGradient id="grad_2" y2="1">
      <stop offset="0" stop-color="#FFFFFF" stop-opacity="0"/>
      <stop offset="1" stop-color="#FFFFFF" stop-opacity="1"/>
    </linearGradient>
  </defs>
  <!-- Exported by Scratch - http://scratch.mit.edu/ -->
  <g id="ID0.09714182931929827" transform="matrix(0.949999988079071, 0, 0, 0.949999988079071, -0.55, 0.4)">
    <path id="ID0.6471739099361002" fill="url(#grad_1)" stroke="#000000" stroke-width="2" stroke-linecap="round" d="M 374.900 54.700 C 375.736 54.720 375.844 54.757 376.050 55.200 C 376.690 56.608 377.067 58.206 377 59.750 C 376.938 61.394 376.756 63.298 375.625 64.492 C 374.600 65.564 373.027 65.781 371.750 65.750 C 369.933 65.697 367.814 65.623 366.750 64.250 C 365.086 62.101 365.253 59.040 364.750 56.450 C 364.586 55.726 364.084 55.176 364.900 55.050 C 368.194 54.519 371.548 54.620 374.900 54.700 Z " transform="matrix(-1.2206363677978516, 0, 0, 1.2206363677978516, 498.5, -61.35)"/>
    <path id="ID0.6471739099361002" fill="url(#grad_2)" stroke="#000000" stroke-width="2" stroke-linecap="round" d="M 364.250 54.800 C 371.150 54.098 375.505 54.137 378.800 54.300 C 379.594 54.354 379.292 54.509 379.400 54.950 C 379.747 56.627 380.074 58.438 379.750 60.100 C 379.444 61.672 378.821 63.601 377.500 64.350 C 375.473 65.497 372.828 65.051 370.500 64.850 C 369.204 64.745 367.624 64.542 366.750 63.550 C 365.658 62.293 365.643 60.523 365.150 59 C 364.904 58.162 364.748 57.371 364.600 56.550 C 364.496 55.965 363.406 55.002 364.250 54.800 Z " transform="matrix(-1.2206363677978516, 0, 0, 1.2206363677978516, 477.2, -61.4)"/>
    <path id="ID0.46460056817159057" fill="none" stroke="#000000" stroke-width="2" stroke-linecap="round" d="M 376.750 56 L 381.250 55.750 " transform="matrix(-1.2206363677978516, 0, 0, 1.2206363677978516, 498.5, -61.35)"/>
    <path id="ID0.9668608279898763" fill="none" stroke="#000000" stroke-width="2" stroke-linecap="round" d="M 397.750 55 L 406.900 51.700 " transform="matrix(-1.2206363677978516, 0, 0, 1.2206363677978516, 498.5, -61.35)"/>
  </g>
</svg>
